exports/wage-of-craftsmen-relative-to-that-of-laborers-in-england-1200-2000_v1_850x600.svg

<svg xmlns="http://www.w3.org/2000/svg" version="1.1" style="background-color:#fff;-webkit-font-smoothing:antialiased" width="850" height="600" font-family="'Helvetica Neue',Helvetica,Arial,sans-serif" font-size="18" text-rendering="optimizeLegibility"><g class="ChartTab"><g class="HeaderView"><g opacity=".8" transform="matrix(.31 0 0 .31 770 15)"><a xmlns:xlink="http://www.w3.org/1999/xlink" xlink:href="https://ourworldindata.org" target="_blank"><g><path fill="#1B2543" d="M0 0h211.2v130.1H0z"/><path fill="#E63912" d="M0 112.2h211.2v17.9H0z"/><g><path fill="none" d="M1.2 12.3h210.2v99.2H1.2z"/><path fill="#FFF" d="M37.8 32.2c0 12.7-7.7 19.4-17.1 19.4-9.7 0-16.6-7.5-16.6-18.7 0-11.7 7.3-19.3 17.1-19.3 10.1.1 16.6 7.7 16.6 18.6zm-28.6.6c0 7.9 4.3 14.9 11.8 14.9 7.5 0 11.8-6.9 11.8-15.3 0-7.3-3.8-14.9-11.8-14.9-7.9 0-11.8 7.3-11.8 15.3zM62.7 43.8c0 2.7.1 5.1.2 7.2h-4.3l-.3-4.3h-.1c-1.3 2.1-4 4.9-8.8 4.9-4.2 0-9.1-2.3-9.1-11.6V24.6h4.8v14.6c0 5 1.5 8.4 5.9 8.4 3.2 0 5.5-2.2 6.3-4.4.3-.7.4-1.6.4-2.5V24.6h4.8v19.2zM67.3 32.8c0-3.1-.1-5.8-.2-8.2h4.2l.2 5.2h.2c1.2-3.5 4.1-5.8 7.3-5.8.5 0 .9.1 1.4.2v4.5c-.5-.1-1-.2-1.6-.2-3.4 0-5.8 2.6-6.5 6.2-.1.7-.2 1.4-.2 2.2V51h-4.8V32.8zM95.4 51L86 14.2h5l4.4 18.6c1.1 4.6 2.1 9.2 2.7 12.7h.1c.6-3.7 1.8-8 3-12.8l4.9-18.5h5l4.5 18.7c1 4.4 2 8.7 2.6 12.6h.1c.8-4 1.8-8.1 3-12.7l4.9-18.5h4.9L120.6 51h-5L111 31.9c-1.1-4.7-1.9-8.3-2.4-12h-.1c-.7 3.7-1.5 7.3-2.8 12L100.4 51h-5zM154.9 37.6c0 9.8-6.8 14-13.2 14-7.2 0-12.7-5.2-12.7-13.6 0-8.8 5.8-14 13.1-14 7.7 0 12.8 5.5 12.8 13.6zm-21 .3c0 5.8 3.3 10.1 8 10.1 4.6 0 8-4.3 8-10.3 0-4.5-2.2-10.1-7.9-10.1s-8.1 5.2-8.1 10.3zM158.2 32.8c0-3.1-.1-5.8-.2-8.2h4.2l.2 5.2h.2c1.2-3.5 4.1-5.8 7.3-5.8.5 0 .9.1 1.4.2v4.5c-.5-.1-1-.2-1.6-.2-3.4 0-5.8 2.6-6.5 6.2-.1.7-.2 1.4-.2 2.2V51h-4.8V32.8zM173.5 12.3h4.8V51h-4.8V12.3zM206.5 12.3v31.9c0 2.3.1 5 .2 6.8h-4.3l-.2-4.6h-.2c-1.5 2.9-4.7 5.2-9 5.2-6.4 0-11.3-5.4-11.3-13.4-.1-8.8 5.4-14.2 11.9-14.2 4 0 6.8 1.9 8 4h.1V12.3h4.8zm-4.8 23.1c0-.6-.1-1.4-.2-2a7 7 0 00-6.9-5.6c-5 0-7.9 4.4-7.9 10.2 0 5.3 2.6 9.8 7.8 9.8 3.2 0 6.2-2.1 7.1-5.7.2-.7.2-1.3.2-2.1v-4.6zM42.8 64c.1 1.6-1.1 2.9-3.1 2.9-1.7 0-2.9-1.3-2.9-2.9 0-1.7 1.3-3 3-3 1.9 0 3 1.3 3 3zm-5.4 33.8V71.4h4.8v26.4h-4.8zM47.5 78.6c0-2.7-.1-5-.2-7.1h4.3l.3 4.4h.1c1.3-2.5 4.4-5 8.8-5 3.7 0 9.4 2.2 9.4 11.2v15.8h-4.8V82.6c0-4.3-1.6-7.8-6.1-7.8-3.2 0-5.6 2.2-6.5 4.9-.2.6-.3 1.4-.3 2.2v15.9h-4.8V78.6zM84 61.6c2.9-.4 6.3-.8 10.1-.8 6.8 0 11.7 1.6 14.9 4.6 3.3 3 5.2 7.3 5.2 13.2 0 6-1.9 10.9-5.3 14.3-3.4 3.4-9.1 5.3-16.3 5.3-3.4 0-6.2-.2-8.6-.4V61.6zm4.8 32.5c1.2.2 3 .3 4.8.3 10.2 0 15.7-5.7 15.7-15.6.1-8.7-4.9-14.2-14.9-14.2-2.5 0-4.3.2-5.6.5v29zM132.1 97.8l-.4-3.3h-.2a9.79 9.79 0 01-8.1 3.9c-5.4 0-8.1-3.8-8.1-7.6 0-6.4 5.7-9.9 15.9-9.8v-.5c0-2.2-.6-6.1-6-6.1-2.5 0-5 .8-6.9 2l-1.1-3.2c2.2-1.4 5.4-2.3 8.7-2.3 8.1 0 10.1 5.5 10.1 10.8v9.9c0 2.3.1 4.5.4 6.3h-4.3zm-.7-13.4c-5.3-.1-11.2.8-11.2 5.9 0 3.1 2.1 4.6 4.5 4.6 3.4 0 5.6-2.2 6.4-4.4.2-.5.3-1 .3-1.5v-4.6zM146.6 63.9v7.6h6.9v3.7h-6.9v14.2c0 3.3.9 5.1 3.6 5.1 1.3 0 2.2-.2 2.8-.3l.2 3.6c-.9.4-2.4.7-4.3.7-2.2 0-4-.7-5.2-2-1.4-1.4-1.9-3.8-1.9-6.9V75.1h-4.1v-3.7h4.1v-6.3l4.8-1.2zM171.4 97.8l-.4-3.3h-.2a9.79 9.79 0 01-8.1 3.9c-5.4 0-8.1-3.8-8.1-7.6 0-6.4 5.7-9.9 15.9-9.8v-.5c0-2.2-.6-6.1-6-6.1-2.5 0-5 .8-6.9 2l-1.1-3.2c2.2-1.4 5.4-2.3 8.7-2.3 8.1 0 10.1 5.5 10.1 10.8v9.9c0 2.3.1 4.5.4 6.3h-4.3zm-.7-13.4c-5.3-.1-11.2.8-11.2 5.9 0 3.1 2.1 4.6 4.5 4.6 3.4 0 5.6-2.2 6.4-4.4.2-.5.3-1 .3-1.5v-4.6z"/></g></g></a></g><a href="https://ourworldindata.org/grapher/wage-of-craftsmen-relative-to-that-of-laborers-in-england-1200-2000" target="_blank"><text font-size="24.3" x="15" y="34.4" fill="#555"><tspan x="15" y="34.44">Wage of craftsmen relative to that of laborers in England, 1200-2000</tspan></text></a></g><g class="LineChart"><defs><clipPath id="a"><path d="M32.68 0h830v963h-830z"/></clipPath></defs><g class="AxisBoxView"><g class="HorizontalAxis" fill="#666" text-anchor="middle" font-size="16.2"><text x="42.7" y="556.5">1220</text><text x="122.9" y="556.5">1300</text><text x="223.2" y="556.5">1400</text><text x="323.5" y="556.5">1500</text><text x="423.8" y="556.5">1600</text><text x="524.1" y="556.5">1700</text><text x="624.4" y="556.5">1800</text><text x="724.7" y="556.5">1900</text><text x="825" y="556.5">2000</text></g><g class="VerticalAxis" fill="#666" dominant-baseline="middle" text-anchor="end" font-size="16.2"><text x="37.68" y="535.3">1</text><text x="37.68" y="458.6">1.2</text><text x="37.68" y="381.9">1.4</text><text x="37.68" y="305.1">1.6</text><text x="37.68" y="228.4">1.8</text><text x="37.68" y="151.7">2</text><text x="37.68" y="75">2.2</text></g><g class="AxisGridLines" stroke="#ddd" stroke-dasharray="3,2"><path d="M42.68 535.3H825M42.68 458.6H825M42.68 381.9H825M42.68 305.1H825M42.68 228.4H825M42.68 151.7H825M42.68 75H825"/></g><g class="AxisGridLines" stroke="#ddd" stroke-dasharray="3,2"><path d="M122.9 535.3V75M223.2 535.3V75M323.5 535.3V75M423.8 535.3V75M524.1 535.3V75M624.4 535.3V75M724.7 535.3V75M825 535.3V75"/></g></g><g clip-path="url(#a)"><g class="Lines"><g class="key-Relative-wages_0"><path stroke="#3360a9" stroke-linecap="round" d="M43 321l20-139 10-3 10 26 10-11 10-42 10-4 10 31 10 11 10-19 10 11 10 46 10 4 10 62 10 7 10 16 10-8 10 35 10-20 10 20 10 7 10-7 10 23 10 15 10-35 11 16 10-16 10 8 10-4 10-15 10 8 10 26 10-11 10 15h10l10-19 10-4 10 16 10-20 10-7 10 15 10-11h10l10-12 10 19 10 8 10-15 10-39 10-11 10 4h10l10-4 10 23 10 15 10 19 10-19 10 12 10-4 10 15 11-34 10 11 10 12 10-8 10-4 10 42 10-15 10 15 10 4 10 19 10 54 10-12 10 20 10 38 10 4 10-27 10-4 10-4 10-15" fill="none" stroke-width="1.5"/><g fill="#3360a9"><circle cx="43" cy="321" r="2"/><circle cx="63" cy="182" r="2"/><circle cx="73" cy="179" r="2"/><circle cx="83" cy="205" r="2"/><circle cx="93" cy="194" r="2"/><circle cx="103" cy="152" r="2"/><circle cx="113" cy="148" r="2"/><circle cx="123" cy="179" r="2"/><circle cx="133" cy="190" r="2"/><circle cx="143" cy="171" r="2"/><circle cx="153" cy="182" r="2"/><circle cx="163" cy="228" r="2"/><circle cx="173" cy="232" r="2"/><circle cx="183" cy="294" r="2"/><circle cx="193" cy="301" r="2"/><circle cx="203" cy="317" r="2"/><circle cx="213" cy="309" r="2"/><circle cx="223" cy="344" r="2"/><circle cx="233" cy="324" r="2"/><circle cx="243" cy="344" r="2"/><circle cx="253" cy="351" r="2"/><circle cx="263" cy="344" r="2"/><circle cx="273" cy="367" r="2"/><circle cx="283" cy="382" r="2"/><circle cx="293" cy="347" r="2"/><circle cx="304" cy="363" r="2"/><circle cx="314" cy="347" r="2"/><circle cx="324" cy="355" r="2"/><circle cx="334" cy="351" r="2"/><circle cx="344" cy="336" r="2"/><circle cx="354" cy="344" r="2"/><circle cx="364" cy="370" r="2"/><circle cx="374" cy="359" r="2"/><circle cx="384" cy="374" r="2"/><circle cx="394" cy="374" r="2"/><circle cx="404" cy="355" r="2"/><circle cx="414" cy="351" r="2"/><circle cx="424" cy="367" r="2"/><circle cx="434" cy="347" r="2"/><circle cx="444" cy="340" r="2"/><circle cx="454" cy="355" r="2"/><circle cx="464" cy="344" r="2"/><circle cx="474" cy="344" r="2"/><circle cx="484" cy="332" r="2"/><circle cx="494" cy="351" r="2"/><circle cx="504" cy="359" r="2"/><circle cx="514" cy="344" r="2"/><circle cx="524" cy="305" r="2"/><circle cx="534" cy="294" r="2"/><circle cx="544" cy="298" r="2"/><circle cx="554" cy="298" r="2"/><circle cx="564" cy="294" r="2"/><circle cx="574" cy="317" r="2"/><circle cx="584" cy="332" r="2"/><circle cx="594" cy="351" r="2"/><circle cx="604" cy="332" r="2"/><circle cx="614" cy="344" r="2"/><circle cx="624" cy="340" r="2"/><circle cx="634" cy="355" r="2"/><circle cx="645" cy="321" r="2"/><circle cx="655" cy="332" r="2"/><circle cx="665" cy="344" r="2"/><circle cx="675" cy="336" r="2"/><circle cx="685" cy="332" r="2"/><circle cx="695" cy="374" r="2"/><circle cx="705" cy="359" r="2"/><circle cx="715" cy="374" r="2"/><circle cx="725" cy="378" r="2"/><circle cx="735" cy="397" r="2"/><circle cx="745" cy="451" r="2"/><circle cx="755" cy="439" r="2"/><circle cx="765" cy="459" r="2"/><circle cx="775" cy="497" r="2"/><circle cx="785" cy="501" r="2"/><circle cx="795" cy="474" r="2"/><circle cx="805" cy="470" r="2"/><circle cx="815" cy="466" r="2"/><circle cx="825" cy="451" r="2"/></g></g></g></g></g><g class="SourcesFooter" fill="#777"><g class="clickable" fill="#777"><text font-size="12.6" x="15" y="581.6"><tspan x="15" y="581.58">Source: The Condition of the Working Class in England, 1209–2004 - Clark (2005)</tspan></text></g><text font-size="12.6" x="528.8" y="581.6"><tspan x="528.82" y="581.58"><a target="_blank" href="https://ourworldindata.org/returns-to-education/" fill="#777">OurWorldInData.org/returns-to-education/</a> • <a href="http://creativecommons.org/licenses/by-sa/4.0/deed.en_US" target="_blank" fill="#777">CC BY-SA</a></tspan></text></g></g></svg>

<svg xmlns="http://www.w3.org/2000/svg" version="1.1" style="font-family: 'Helvetica Neue', Helvetica, Arial, sans-serif; font-size: 18px; background-color: white; text-rendering: optimizeLegibility; -webkit-font-smoothing: antialiased;" width="850" height="600"><g class="ChartTab"><g class="HeaderView"><g opacity="0.8" transform="translate(770, 15) scale(0.31)"><a xmlns:xlink="http://www.w3.org/1999/xlink" xlink:href="https://ourworldindata.org" target="_blank"><g><rect x="0" y="0" fill="#1B2543" width="211.2" height="130.1"/><rect x="0" y="112.2" fill="#E63912" width="211.2" height="17.9"/><g><rect x="1.2" y="12.3" fill="none" width="210.2" height="99.2"/><path fill="#FFFFFF" d="M37.8,32.2c0,12.7-7.7,19.4-17.1,19.4c-9.7,0-16.6-7.5-16.6-18.7c0-11.7,7.3-19.3,17.1-19.3 C31.3,13.7,37.8,21.3,37.8,32.2z M9.2,32.8c0,7.9,4.3,14.9,11.8,14.9c7.5,0,11.8-6.9,11.8-15.3c0-7.3-3.8-14.9-11.8-14.9 C13.1,17.5,9.2,24.8,9.2,32.8z"/><path fill="#FFFFFF" d="M62.7,43.8c0,2.7,0.1,5.1,0.2,7.2h-4.3l-0.3-4.3h-0.1c-1.3,2.1-4,4.9-8.8,4.9c-4.2,0-9.1-2.3-9.1-11.6 V24.6h4.8v14.6c0,5,1.5,8.4,5.9,8.4c3.2,0,5.5-2.2,6.3-4.4c0.3-0.7,0.4-1.6,0.4-2.5V24.6h4.8V43.8z"/><path fill="#FFFFFF" d="M67.3,32.8c0-3.1-0.1-5.8-0.2-8.2h4.2l0.2,5.2h0.2c1.2-3.5,4.1-5.8,7.3-5.8c0.5,0,0.9,0.1,1.4,0.2v4.5 c-0.5-0.1-1-0.2-1.6-0.2c-3.4,0-5.8,2.6-6.5,6.2c-0.1,0.7-0.2,1.4-0.2,2.2V51h-4.8V32.8z"/><path fill="#FFFFFF" d="M95.4,51l-9.4-36.8h5l4.4,18.6c1.1,4.6,2.1,9.2,2.7,12.7h0.1c0.6-3.7,1.8-8,3-12.8l4.9-18.5h5l4.5,18.7 c1,4.4,2,8.7,2.6,12.6h0.1c0.8-4,1.8-8.1,3-12.7l4.9-18.5h4.9L120.6,51h-5L111,31.9c-1.1-4.7-1.9-8.3-2.4-12h-0.1 c-0.7,3.7-1.5,7.3-2.8,12L100.4,51H95.4z"/><path fill="#FFFFFF" d="M154.9,37.6c0,9.8-6.8,14-13.2,14c-7.2,0-12.7-5.2-12.7-13.6c0-8.8,5.8-14,13.1-14 C149.8,24,154.9,29.5,154.9,37.6z M133.9,37.9c0,5.8,3.3,10.1,8,10.1c4.6,0,8-4.3,8-10.3c0-4.5-2.2-10.1-7.9-10.1 C136.3,27.6,133.9,32.8,133.9,37.9z"/><path fill="#FFFFFF" d="M158.2,32.8c0-3.1-0.1-5.8-0.2-8.2h4.2l0.2,5.2h0.2c1.2-3.5,4.1-5.8,7.3-5.8c0.5,0,0.9,0.1,1.4,0.2v4.5 c-0.5-0.1-1-0.2-1.6-0.2c-3.4,0-5.8,2.6-6.5,6.2c-0.1,0.7-0.2,1.4-0.2,2.2V51h-4.8V32.8z"/><path fill="#FFFFFF" d="M173.5,12.3h4.8V51h-4.8V12.3z"/><path fill="#FFFFFF" d="M206.5,12.3v31.9c0,2.3,0.1,5,0.2,6.8h-4.3l-0.2-4.6H202c-1.5,2.9-4.7,5.2-9,5.2 c-6.4,0-11.3-5.4-11.3-13.4c-0.1-8.8,5.4-14.2,11.9-14.2c4,0,6.8,1.9,8,4h0.1V12.3H206.5z M201.7,35.4c0-0.6-0.1-1.4-0.2-2 c-0.7-3.1-3.3-5.6-6.9-5.6c-5,0-7.9,4.4-7.9,10.2c0,5.3,2.6,9.8,7.8,9.8c3.2,0,6.2-2.1,7.1-5.7c0.2-0.7,0.2-1.3,0.2-2.1V35.4z"/><path fill="#FFFFFF" d="M42.8,64c0.1,1.6-1.1,2.9-3.1,2.9c-1.7,0-2.9-1.3-2.9-2.9c0-1.7,1.3-3,3-3C41.7,61,42.8,62.3,42.8,64z M37.4,97.8V71.4h4.8v26.4H37.4z"/><path fill="#FFFFFF" d="M47.5,78.6c0-2.7-0.1-5-0.2-7.1h4.3l0.3,4.4h0.1c1.3-2.5,4.4-5,8.8-5c3.7,0,9.4,2.2,9.4,11.2v15.8h-4.8 V82.6c0-4.3-1.6-7.8-6.1-7.8c-3.2,0-5.6,2.2-6.5,4.9c-0.2,0.6-0.3,1.4-0.3,2.2v15.9h-4.8V78.6z"/><path fill="#FFFFFF" d="M84,61.6c2.9-0.4,6.3-0.8,10.1-0.8c6.8,0,11.7,1.6,14.9,4.6c3.3,3,5.2,7.3,5.2,13.2c0,6-1.9,10.9-5.3,14.3 c-3.4,3.4-9.1,5.3-16.3,5.3c-3.4,0-6.2-0.2-8.6-0.4V61.6z M88.8,94.1c1.2,0.2,3,0.3,4.8,0.3c10.2,0,15.7-5.7,15.7-15.6 c0.1-8.7-4.9-14.2-14.9-14.2c-2.5,0-4.3,0.2-5.6,0.5V94.1z"/><path fill="#FFFFFF" d="M132.1,97.8l-0.4-3.3h-0.2c-1.5,2.1-4.3,3.9-8.1,3.9c-5.4,0-8.1-3.8-8.1-7.6c0-6.4,5.7-9.9,15.9-9.8v-0.5 c0-2.2-0.6-6.1-6-6.1c-2.5,0-5,0.8-6.9,2l-1.1-3.2c2.2-1.4,5.4-2.3,8.7-2.3c8.1,0,10.1,5.5,10.1,10.8v9.9c0,2.3,0.1,4.5,0.4,6.3 H132.1z M131.4,84.4c-5.3-0.1-11.2,0.8-11.2,5.9c0,3.1,2.1,4.6,4.5,4.6c3.4,0,5.6-2.2,6.4-4.4c0.2-0.5,0.3-1,0.3-1.5V84.4z"/><path fill="#FFFFFF" d="M146.6,63.9v7.6h6.9v3.7h-6.9v14.2c0,3.3,0.9,5.1,3.6,5.1c1.3,0,2.2-0.2,2.8-0.3l0.2,3.6 c-0.9,0.4-2.4,0.7-4.3,0.7c-2.2,0-4-0.7-5.2-2c-1.4-1.4-1.9-3.8-1.9-6.9V75.1h-4.1v-3.7h4.1v-6.3L146.6,63.9z"/><path fill="#FFFFFF" d="M171.4,97.8l-0.4-3.3h-0.2c-1.5,2.1-4.3,3.9-8.1,3.9c-5.4,0-8.1-3.8-8.1-7.6c0-6.4,5.7-9.9,15.9-9.8v-0.5 c0-2.2-0.6-6.1-6-6.1c-2.5,0-5,0.8-6.9,2l-1.1-3.2c2.2-1.4,5.4-2.3,8.7-2.3c8.1,0,10.1,5.5,10.1,10.8v9.9c0,2.3,0.1,4.5,0.4,6.3 H171.4z M170.7,84.4c-5.3-0.1-11.2,0.8-11.2,5.9c0,3.1,2.1,4.6,4.5,4.6c3.4,0,5.6-2.2,6.4-4.4c0.2-0.5,0.3-1,0.3-1.5V84.4z"/></g></g></a></g><a href="https://ourworldindata.org/grapher/wage-of-craftsmen-relative-to-that-of-laborers-in-england-1200-2000" target="_blank"><text font-size="24.30" x="15.0" y="34.4" fill="#555"><tspan x="15" y="34.44">Wage of craftsmen relative to that of laborers in England, 1200-2000</tspan></text></a></g><g class="LineChart"><defs><clipPath id="boundsClip-177"><rect x="32.68" y="0" width="830" height="963"></rect></clipPath></defs><g class="AxisBoxView"><g class="HorizontalAxis"><text x="42.7" y="556.5" fill="#666" text-anchor="middle" font-size="16.2">1220</text><text x="122.9" y="556.5" fill="#666" text-anchor="middle" font-size="16.2">1300</text><text x="223.2" y="556.5" fill="#666" text-anchor="middle" font-size="16.2">1400</text><text x="323.5" y="556.5" fill="#666" text-anchor="middle" font-size="16.2">1500</text><text x="423.8" y="556.5" fill="#666" text-anchor="middle" font-size="16.2">1600</text><text x="524.1" y="556.5" fill="#666" text-anchor="middle" font-size="16.2">1700</text><text x="624.4" y="556.5" fill="#666" text-anchor="middle" font-size="16.2">1800</text><text x="724.7" y="556.5" fill="#666" text-anchor="middle" font-size="16.2">1900</text><text x="825" y="556.5" fill="#666" text-anchor="middle" font-size="16.2">2000</text></g><g class="VerticalAxis"><text x="37.68" y="535.3" fill="#666" dominant-baseline="middle" text-anchor="end" font-size="16.2">1</text><text x="37.68" y="458.6" fill="#666" dominant-baseline="middle" text-anchor="end" font-size="16.2">1.2</text><text x="37.68" y="381.9" fill="#666" dominant-baseline="middle" text-anchor="end" font-size="16.2">1.4</text><text x="37.68" y="305.1" fill="#666" dominant-baseline="middle" text-anchor="end" font-size="16.2">1.6</text><text x="37.68" y="228.4" fill="#666" dominant-baseline="middle" text-anchor="end" font-size="16.2">1.8</text><text x="37.68" y="151.7" fill="#666" dominant-baseline="middle" text-anchor="end" font-size="16.2">2</text><text x="37.68" y="75" fill="#666" dominant-baseline="middle" text-anchor="end" font-size="16.2">2.2</text></g><g class="AxisGridLines"><line x1="42.68" y1="535.3" x2="825.00" y2="535.3" stroke="#ddd" stroke-dasharray="3,2"></line><line x1="42.68" y1="458.6" x2="825.00" y2="458.6" stroke="#ddd" stroke-dasharray="3,2"></line><line x1="42.68" y1="381.9" x2="825.00" y2="381.9" stroke="#ddd" stroke-dasharray="3,2"></line><line x1="42.68" y1="305.1" x2="825.00" y2="305.1" stroke="#ddd" stroke-dasharray="3,2"></line><line x1="42.68" y1="228.4" x2="825.00" y2="228.4" stroke="#ddd" stroke-dasharray="3,2"></line><line x1="42.68" y1="151.7" x2="825.00" y2="151.7" stroke="#ddd" stroke-dasharray="3,2"></line><line x1="42.68" y1="75" x2="825.00" y2="75" stroke="#ddd" stroke-dasharray="3,2"></line></g><g class="AxisGridLines"><line x1="122.9" y1="535.30" x2="122.9" y2="75.00" stroke="#ddd" stroke-dasharray="3,2"></line><line x1="223.2" y1="535.30" x2="223.2" y2="75.00" stroke="#ddd" stroke-dasharray="3,2"></line><line x1="323.5" y1="535.30" x2="323.5" y2="75.00" stroke="#ddd" stroke-dasharray="3,2"></line><line x1="423.8" y1="535.30" x2="423.8" y2="75.00" stroke="#ddd" stroke-dasharray="3,2"></line><line x1="524.1" y1="535.30" x2="524.1" y2="75.00" stroke="#ddd" stroke-dasharray="3,2"></line><line x1="624.4" y1="535.30" x2="624.4" y2="75.00" stroke="#ddd" stroke-dasharray="3,2"></line><line x1="724.7" y1="535.30" x2="724.7" y2="75.00" stroke="#ddd" stroke-dasharray="3,2"></line><line x1="825" y1="535.30" x2="825" y2="75.00" stroke="#ddd" stroke-dasharray="3,2"></line></g></g><g clip-path="url(#boundsClip-177)"><g class="Lines"><rect x="43" y="75" width="782" height="460" fill="rgba(255,255,255,0)" opacity="0"></rect><g class="key-Relative-wages_0"><path stroke="#3360a9" stroke-linecap="round" d="M43 321L63 182L73 179L83 205L93 194L103 152L113 148L123 179L133 190L143 171L153 182L163 228L173 232L183 294L193 301L203 317L213 309L223 344L233 324L243 344L253 351L263 344L273 367L283 382L293 347L304 363L314 347L324 355L334 351L344 336L354 344L364 370L374 359L384 374L394 374L404 355L414 351L424 367L434 347L444 340L454 355L464 344L474 344L484 332L494 351L504 359L514 344L524 305L534 294L544 298L554 298L564 294L574 317L584 332L594 351L604 332L614 344L624 340L634 355L645 321L655 332L665 344L675 336L685 332L695 374L705 359L715 374L725 378L735 397L745 451L755 439L765 459L775 497L785 501L795 474L805 470L815 466L825 451" fill="none" stroke-width="1.5"></path><g fill="#3360a9"><circle cx="43" cy="321" r="2"></circle><circle cx="63" cy="182" r="2"></circle><circle cx="73" cy="179" r="2"></circle><circle cx="83" cy="205" r="2"></circle><circle cx="93" cy="194" r="2"></circle><circle cx="103" cy="152" r="2"></circle><circle cx="113" cy="148" r="2"></circle><circle cx="123" cy="179" r="2"></circle><circle cx="133" cy="190" r="2"></circle><circle cx="143" cy="171" r="2"></circle><circle cx="153" cy="182" r="2"></circle><circle cx="163" cy="228" r="2"></circle><circle cx="173" cy="232" r="2"></circle><circle cx="183" cy="294" r="2"></circle><circle cx="193" cy="301" r="2"></circle><circle cx="203" cy="317" r="2"></circle><circle cx="213" cy="309" r="2"></circle><circle cx="223" cy="344" r="2"></circle><circle cx="233" cy="324" r="2"></circle><circle cx="243" cy="344" r="2"></circle><circle cx="253" cy="351" r="2"></circle><circle cx="263" cy="344" r="2"></circle><circle cx="273" cy="367" r="2"></circle><circle cx="283" cy="382" r="2"></circle><circle cx="293" cy="347" r="2"></circle><circle cx="304" cy="363" r="2"></circle><circle cx="314" cy="347" r="2"></circle><circle cx="324" cy="355" r="2"></circle><circle cx="334" cy="351" r="2"></circle><circle cx="344" cy="336" r="2"></circle><circle cx="354" cy="344" r="2"></circle><circle cx="364" cy="370" r="2"></circle><circle cx="374" cy="359" r="2"></circle><circle cx="384" cy="374" r="2"></circle><circle cx="394" cy="374" r="2"></circle><circle cx="404" cy="355" r="2"></circle><circle cx="414" cy="351" r="2"></circle><circle cx="424" cy="367" r="2"></circle><circle cx="434" cy="347" r="2"></circle><circle cx="444" cy="340" r="2"></circle><circle cx="454" cy="355" r="2"></circle><circle cx="464" cy="344" r="2"></circle><circle cx="474" cy="344" r="2"></circle><circle cx="484" cy="332" r="2"></circle><circle cx="494" cy="351" r="2"></circle><circle cx="504" cy="359" r="2"></circle><circle cx="514" cy="344" r="2"></circle><circle cx="524" cy="305" r="2"></circle><circle cx="534" cy="294" r="2"></circle><circle cx="544" cy="298" r="2"></circle><circle cx="554" cy="298" r="2"></circle><circle cx="564" cy="294" r="2"></circle><circle cx="574" cy="317" r="2"></circle><circle cx="584" cy="332" r="2"></circle><circle cx="594" cy="351" r="2"></circle><circle cx="604" cy="332" r="2"></circle><circle cx="614" cy="344" r="2"></circle><circle cx="624" cy="340" r="2"></circle><circle cx="634" cy="355" r="2"></circle><circle cx="645" cy="321" r="2"></circle><circle cx="655" cy="332" r="2"></circle><circle cx="665" cy="344" r="2"></circle><circle cx="675" cy="336" r="2"></circle><circle cx="685" cy="332" r="2"></circle><circle cx="695" cy="374" r="2"></circle><circle cx="705" cy="359" r="2"></circle><circle cx="715" cy="374" r="2"></circle><circle cx="725" cy="378" r="2"></circle><circle cx="735" cy="397" r="2"></circle><circle cx="745" cy="451" r="2"></circle><circle cx="755" cy="439" r="2"></circle><circle cx="765" cy="459" r="2"></circle><circle cx="775" cy="497" r="2"></circle><circle cx="785" cy="501" r="2"></circle><circle cx="795" cy="474" r="2"></circle><circle cx="805" cy="470" r="2"></circle><circle cx="815" cy="466" r="2"></circle><circle cx="825" cy="451" r="2"></circle></g></g></g></g></g><g style="fill: #777;" class="SourcesFooter"><g style="fill: #777;" class="clickable"><text font-size="12.60" x="15.0" y="581.6"><tspan x="15" y="581.58">Source: The Condition of the Working Class in England, 1209–2004 - Clark (2005)</tspan></text></g><text font-size="12.60" x="528.8" y="581.6"><tspan x="528.8199999999999" y="581.58"><a target='_blank' style='fill: #777;' href='https://ourworldindata.org/returns-to-education/'>OurWorldInData.org/returns-to-education/</a> • <a style="fill: #777;" href="http://creativecommons.org/licenses/by-sa/4.0/deed.en_US" target="_blank">CC BY-SA</a></tspan></text></g></g></svg>
